X:1
T:Oviedo, 86.86.86 D
T:Oviedo, 86.86.86 D
T:M. J. Smalley, 1899
T:Public Domain Courtesy of the Cyber Hymnal™
C:M. J. Smalley, 1899
Z:Public Domain
Z:Courtesy of the Cyber Hymnal™
%%score ( 1 2 ) ( 3 4 )
L:1/8
Q:1/4=100
M:3/4
K:G
V:1 treble 
V:2 treble 
V:3 bass 
V:4 bass 
V:1
 [B,D]2 | [DB]>[^C^A] [DB]2 [E=c]2 | [CA]>[B,^G] [CA]2 [Ec]2 | [DB]3 [CA] [B,G][CA] | %4
 [DB]4 [B,D]2 | [DB]>[^C^A] [DB]2 [E=c]2 | [CA]>[B,^G] [CA]2 [Ec]2 | [DB]3 [CA] [B,G]F | %8
 [B,G]4 [B,G]2 | [Ec]>[Ec] [Ec]2 [CE]2 | [B,D][B,G] [DB]3 [DB] | [^CB]3 [CA] [CA][CB] | %12
 [CA]4 (DG) | [DB]>[^C^A] [DB]2 [E=c]2 | [CA]>[B,^G] [CA]2 [Ec]2 | [DB]3 [CA] [B,G]F | %16
 [B,G]4 ([CE][EG]) | [Ec]>[Ec] [Ec]2 [CE]2 | [B,D][DG] [GB]3 [GB] | [GB]3 [FA] [EG][DA] | %20
 [DB]4 ([CE][DF]) | [Ec]>[Ec] [Ec]2 [CE]2 | [B,D][DG] [GB]3 [Gd] | [Gd]3 [Gc]"^riten." [GB][FA] | %24
 [DG]4 |] %25
V:2
 x2 | x6 | x6 | x6 | x6 | x6 | x6 | x5 (A,/C/) | x6 | x6 | x6 | x6 | x4 B,2 | x6 | x6 | %15
 x5 (A,/C/) | x6 | x6 | x6 | x6 | x6 | x6 | x6 | x6 | x4 |] %25
V:3
 [G,,G,]2 | [G,,G,]6 | [D,F,]6 | G,3 D, E,D, | [G,,G,]4 [G,,G,]2 | [G,,G,]6 | [D,F,]6 | %7
 G,3 C, D,D, | [G,,D,]4 [G,,G,]2 | [C,G,]6 | [G,,G,]6 | E,4 G,2 | [D,F,]4 [G,,G,]2 | [G,,G,]6 | %14
 [D,F,]6 | G,3 C, D,D, | [G,,D,]4 [C,G,]2 | [C,G,]>[C,G,] [C,G,]2 G,2 | G,[G,B,] [G,D]3 [G,D] | %19
 [D,D]3 [D,C] [E,B,][D,F,] | G,4 [C,G,]2 | [C,G,]>[C,G,] [C,G,]2 G,2 | G,[G,B,] [G,D]3 [G,B,] | %23
 [G,B,]3 [C,E] [D,D][D,C] | [G,,G,B,]4 |] %25
V:4
 x2 | x6 | x6 | G,3 D, E,D, | x6 | x6 | x6 | G,3 C, D,D, | x6 | x6 | x6 | A,,6 | x6 | x6 | x6 | %15
 G,3 C, D,D, | x6 | x4 (C,E,) | G, x5 | x6 | G,4 x2 | x4 (C,E,) | G, x5 | x6 | x4 |] %25

